X:1
T:RVW2/1/15 Silvy-0
T:RVW2/1/15 Silvy-0
T:Sung by the Clark Family, Hadleigh, Sept. 3rd 1907
T:Transcribed by Simon Furey and Lewis Jones
C:Transcribed by Simon Furey and Lewis Jones
L:1/8
Q:1/4=100
M:4/4
K:F
V:1 treble 
V:1
"^(editorial suggestion)" F2 c2 d2 cB | A2 G2 F4 | G2 G2 GA B2 | d2 c2 c4 | d2 e2 f2 ed | %5
 c2 f2 !fermata!A2 F2 | F2 c2 d2 c2 | A2 G2 F4 |] %8

